X:1
T:Dinky's
R:reel
M:4/4
L:1/8
K:Amix
ed|:c2 (3BcB ABcd|egfd edBd|gB~B2 gBaB|gB~B2 gfed|
|c2 (3BcB ABcd|egfd edBd|g2gd eged|1 cdBc A2ed:|2 cdBc Aefg|]
|aA~A2 aAbA|aA~A2 agef|gB~B2 gBaB|gB~B2 gfeg|
|aA~A2 aAbA|aA~A2 agef|g2gd eged|cdBc Aefg|
|aA~A2 aAbA|aA~A2 agef|gB~B2 gBaB|gB~B2 gfeg|
|aA~A2 gA~A2|fA~A2 e2ef|g2gd eged|cdBc A2ed|